X: 40316
T: Tom Billy's
R: jig
M: 6/8
K: Adorian
ABA ABd|edB G3|dBB gBB|def gfg|
ABA ABd|edB G3|dBB gBB|ABA A3:|
|:e(3aaa aga|bab age|(3efg e GBd|ede ged|
eaa aga|bab age|efg dBG|BAG A3:|

